en/_images/contact-support.svg

<svg width="138" height="36" viewBox="0 0 138 36" fill="none" xmlns="http://www.w3.org/2000/svg">
<path d="M0 8C0 3.58172 3.58172 0 8 0H130C134.418 0 138 3.58172 138 8V28C138 32.4183 134.418 36 130 36H8C3.58172 36 0 32.4183 0 28V8Z" fill="#2C3C4F"/>
<path d="M22.1212 23.14C21.3465 23.14 20.6465 23.0233 20.0212 22.79C19.3958 22.5567 18.8592 22.2207 18.4112 21.782C17.9725 21.334 17.6318 20.7927 17.3892 20.158C17.1558 19.514 17.0392 18.7907 17.0392 17.988C17.0392 17.176 17.1512 16.4527 17.3752 15.818C17.6085 15.1833 17.9398 14.6467 18.3692 14.208C18.8078 13.76 19.3398 13.4193 19.9652 13.186C20.5905 12.9527 21.3045 12.836 22.1072 12.836C22.7978 12.836 23.3858 12.906 23.8712 13.046C24.3658 13.1767 24.7578 13.3307 25.0472 13.508V15.02C24.6832 14.7867 24.2445 14.6093 23.7312 14.488C23.2272 14.3573 22.7045 14.292 22.1632 14.292C21.0338 14.292 20.1938 14.6 19.6432 15.216C19.1018 15.8227 18.8312 16.7467 18.8312 17.988C18.8312 20.452 19.9698 21.684 22.2472 21.684C22.7792 21.684 23.2785 21.6187 23.7452 21.488C24.2212 21.3573 24.6552 21.152 25.0472 20.872V22.37C24.7858 22.566 24.4078 22.7433 23.9132 22.902C23.4185 23.0607 22.8212 23.14 22.1212 23.14ZM29.7954 23.14C29.282 23.14 28.806 23.056 28.3674 22.888C27.9287 22.72 27.546 22.4773 27.2194 22.16C26.902 21.8333 26.65 21.4367 26.4634 20.97C26.286 20.5033 26.1974 19.9667 26.1974 19.36C26.1974 18.7533 26.286 18.2167 26.4634 17.75C26.65 17.2833 26.902 16.8913 27.2194 16.574C27.546 16.2473 27.9287 16.0047 28.3674 15.846C28.806 15.678 29.282 15.594 29.7954 15.594C30.3087 15.594 30.7847 15.678 31.2234 15.846C31.662 16.0047 32.0447 16.2473 32.3714 16.574C32.698 16.8913 32.9547 17.2833 33.1414 17.75C33.328 18.2167 33.4214 18.7533 33.4214 19.36C33.4214 19.9667 33.328 20.5033 33.1414 20.97C32.9547 21.4367 32.698 21.8333 32.3714 22.16C32.0447 22.4773 31.662 22.72 31.2234 22.888C30.7847 23.056 30.3087 23.14 29.7954 23.14ZM29.7954 21.782C30.3554 21.782 30.8174 21.586 31.1814 21.194C31.5547 20.802 31.7414 20.1907 31.7414 19.36C31.7414 18.5387 31.5547 17.932 31.1814 17.54C30.8174 17.1387 30.3554 16.938 29.7954 16.938C29.2447 16.938 28.7827 17.1387 28.4094 17.54C28.0454 17.932 27.8634 18.5387 27.8634 19.36C27.8634 20.1907 28.0454 20.802 28.4094 21.194C28.7827 21.586 29.2447 21.782 29.7954 21.782ZM38.3361 16.938C37.8601 16.938 37.4681 17.0407 37.1601 17.246C36.8521 17.442 36.6001 17.6987 36.4041 18.016V23H34.7801V15.734H36.3201L36.3761 16.924H36.4041C36.6001 16.5413 36.8941 16.224 37.2861 15.972C37.6875 15.72 38.1961 15.594 38.8121 15.594C39.5215 15.594 40.1001 15.7853 40.5481 16.168C41.0055 16.5507 41.2341 17.134 41.2341 17.918V23H39.5961V18.086C39.5961 17.666 39.4841 17.372 39.2601 17.204C39.0361 17.0267 38.7281 16.938 38.3361 16.938ZM46.8756 22.776C46.7076 22.8787 46.4976 22.9627 46.2456 23.028C45.9936 23.1027 45.7042 23.14 45.3776 23.14C44.9856 23.14 44.6542 23.0887 44.3836 22.986C44.1222 22.874 43.9076 22.7247 43.7396 22.538C43.5716 22.3513 43.4502 22.1367 43.3756 21.894C43.3009 21.642 43.2636 21.376 43.2636 21.096V17.05H42.3956V15.734H43.2636V14.208H44.8876V15.734H46.9736V17.05H44.8876V20.914C44.8876 21.2127 44.9576 21.432 45.0976 21.572C45.2469 21.712 45.4896 21.782 45.8256 21.782C46.0496 21.782 46.2456 21.7493 46.4136 21.684C46.5816 21.6187 46.7356 21.53 46.8756 21.418V22.776ZM52.5696 21.726C52.495 21.894 52.3923 22.062 52.2616 22.23C52.1403 22.398 51.9863 22.552 51.7996 22.692C51.6223 22.8227 51.4076 22.93 51.1556 23.014C50.9036 23.098 50.6096 23.14 50.2736 23.14C49.9563 23.14 49.6623 23.0933 49.3916 23C49.121 22.916 48.883 22.7853 48.6776 22.608C48.4816 22.4307 48.323 22.2113 48.2016 21.95C48.0896 21.6793 48.0336 21.3713 48.0336 21.026C48.0336 20.2327 48.3276 19.64 48.9156 19.248C49.5036 18.8467 50.3343 18.646 51.4076 18.646H52.5136V18.198C52.5136 17.722 52.3923 17.3953 52.1496 17.218C51.907 17.0313 51.5056 16.938 50.9456 16.938C50.4696 16.938 50.0216 17.008 49.6016 17.148C49.191 17.2787 48.827 17.4327 48.5096 17.61V16.252C48.799 16.0933 49.1816 15.944 49.6576 15.804C50.1336 15.664 50.6516 15.594 51.2116 15.594C52.145 15.594 52.8636 15.79 53.3676 16.182C53.881 16.5647 54.1376 17.1807 54.1376 18.03V21.824C54.1376 21.908 54.1376 22.006 54.1376 22.118C54.147 22.2207 54.1516 22.328 54.1516 22.44C54.161 22.552 54.1703 22.6593 54.1796 22.762C54.189 22.8553 54.1983 22.9347 54.2076 23H52.7096C52.6816 22.8693 52.6536 22.6873 52.6256 22.454C52.607 22.2207 52.593 22.0107 52.5836 21.824L52.5696 21.726ZM50.7216 21.88C51.067 21.88 51.3516 21.81 51.5756 21.67C51.809 21.5207 51.9956 21.3527 52.1356 21.166C52.2756 20.97 52.3736 20.7787 52.4296 20.592C52.4856 20.4053 52.5136 20.2747 52.5136 20.2V19.71H51.5056C50.8616 19.71 50.3903 19.8127 50.0916 20.018C49.793 20.214 49.6436 20.494 49.6436 20.858C49.6436 21.1753 49.7323 21.4273 49.9096 21.614C50.0963 21.7913 50.367 21.88 50.7216 21.88ZM59.2355 23.14C58.6475 23.14 58.1202 23.056 57.6535 22.888C57.1868 22.7107 56.7902 22.4633 56.4635 22.146C56.1368 21.8193 55.8848 21.4227 55.7075 20.956C55.5302 20.4893 55.4415 19.9573 55.4415 19.36C55.4415 18.772 55.5302 18.2447 55.7075 17.778C55.8848 17.3113 56.1368 16.9193 56.4635 16.602C56.7902 16.2753 57.1915 16.028 57.6675 15.86C58.1435 15.6827 58.6755 15.594 59.2635 15.594C59.7675 15.594 60.2062 15.65 60.5795 15.762C60.9622 15.874 61.2655 16.014 61.4895 16.182V17.526C61.2002 17.3393 60.8828 17.1947 60.5375 17.092C60.2015 16.9893 59.8095 16.938 59.3615 16.938C57.8588 16.938 57.1075 17.7453 57.1075 19.36C57.1075 20.9747 57.8448 21.782 59.3195 21.782C59.7955 21.782 60.2015 21.7307 60.5375 21.628C60.8828 21.516 61.2002 21.376 61.4895 21.208V22.552C61.2468 22.7107 60.9435 22.8507 60.5795 22.972C60.2155 23.084 59.7675 23.14 59.2355 23.14ZM66.8639 22.776C66.6959 22.8787 66.4859 22.9627 66.2339 23.028C65.9819 23.1027 65.6925 23.14 65.3659 23.14C64.9739 23.14 64.6425 23.0887 64.3719 22.986C64.1105 22.874 63.8959 22.7247 63.7279 22.538C63.5599 22.3513 63.4385 22.1367 63.3639 21.894C63.2892 21.642 63.2519 21.376 63.2519 21.096V17.05H62.3839V15.734H63.2519V14.208H64.8759V15.734H66.9619V17.05H64.8759V20.914C64.8759 21.2127 64.9459 21.432 65.0859 21.572C65.2352 21.712 65.4779 21.782 65.8139 21.782C66.0379 21.782 66.2339 21.7493 66.4019 21.684C66.5699 21.6187 66.7239 21.53 66.8639 21.418V22.776ZM73.8421 23.14C73.4781 23.14 73.1468 23.1073 72.8481 23.042C72.5588 22.986 72.3021 22.916 72.0781 22.832C71.8541 22.748 71.6628 22.6593 71.5041 22.566C71.3548 22.4727 71.2334 22.3887 71.1401 22.314V21.026C71.2334 21.11 71.3594 21.2033 71.5181 21.306C71.6861 21.3993 71.8774 21.4927 72.0921 21.586C72.3161 21.67 72.5681 21.74 72.8481 21.796C73.1281 21.852 73.4408 21.88 73.7861 21.88C74.2994 21.88 74.6728 21.8053 74.9061 21.656C75.1488 21.4973 75.2701 21.2687 75.2701 20.97C75.2701 20.774 75.2234 20.62 75.1301 20.508C75.0368 20.396 74.9108 20.3073 74.7521 20.242C74.5934 20.1767 74.4068 20.13 74.1921 20.102C73.9868 20.0647 73.7721 20.0227 73.5481 19.976C73.2588 19.92 72.9694 19.85 72.6801 19.766C72.4001 19.6727 72.1434 19.5467 71.9101 19.388C71.6861 19.2293 71.4994 19.024 71.3501 18.772C71.2101 18.52 71.1401 18.198 71.1401 17.806C71.1401 17.1153 71.3968 16.574 71.9101 16.182C72.4234 15.79 73.1561 15.594 74.1081 15.594C74.6494 15.594 75.1161 15.65 75.5081 15.762C75.9094 15.874 76.2034 15.9907 76.3901 16.112V17.4C76.1661 17.2507 75.8768 17.12 75.5221 17.008C75.1674 16.896 74.7194 16.84 74.1781 16.84C73.6461 16.84 73.2588 16.91 73.0161 17.05C72.7734 17.19 72.6521 17.4093 72.6521 17.708C72.6521 17.876 72.6941 18.0113 72.7781 18.114C72.8714 18.2073 72.9881 18.282 73.1281 18.338C73.2774 18.394 73.4454 18.4407 73.6321 18.478C73.8281 18.506 74.0288 18.5387 74.2341 18.576C74.5234 18.632 74.8174 18.702 75.1161 18.786C75.4241 18.8607 75.6994 18.982 75.9421 19.15C76.1941 19.3087 76.3994 19.5233 76.5581 19.794C76.7168 20.0647 76.7961 20.4147 76.7961 20.844C76.7961 21.2827 76.7121 21.6513 76.5441 21.95C76.3761 22.2393 76.1521 22.4727 75.8721 22.65C75.5921 22.8273 75.2748 22.9533 74.9201 23.028C74.5654 23.1027 74.2061 23.14 73.8421 23.14ZM82.7813 21.81C82.5853 22.1833 82.2913 22.5007 81.8993 22.762C81.5166 23.014 81.0126 23.14 80.3873 23.14C79.706 23.14 79.1506 22.944 78.7213 22.552C78.292 22.16 78.0773 21.5627 78.0773 20.76V15.734H79.7153V20.718C79.7153 21.138 79.832 21.4227 80.0653 21.572C80.2986 21.712 80.5833 21.782 80.9193 21.782C81.3766 21.782 81.75 21.6887 82.0393 21.502C82.3286 21.306 82.576 21.0447 82.7813 20.718V15.734H84.3913V23H82.9073L82.8093 21.81H82.7813ZM90.2314 23.14C89.6807 23.14 89.2047 23.0187 88.8034 22.776C88.4114 22.524 88.094 22.188 87.8514 21.768V25.478H86.2274V15.734H87.7114L87.8234 17.022C88.066 16.5833 88.388 16.238 88.7894 15.986C89.1907 15.7247 89.6807 15.594 90.2594 15.594C90.6887 15.594 91.0947 15.6733 91.4774 15.832C91.8694 15.9813 92.21 16.2147 92.4994 16.532C92.7887 16.84 93.0174 17.232 93.1854 17.708C93.3627 18.1747 93.4514 18.7253 93.4514 19.36C93.4514 20.004 93.3627 20.564 93.1854 21.04C93.0174 21.5067 92.784 21.8987 92.4854 22.216C92.196 22.524 91.8554 22.7573 91.4634 22.916C91.0714 23.0653 90.6607 23.14 90.2314 23.14ZM89.8394 21.782C90.418 21.782 90.8847 21.586 91.2394 21.194C91.6034 20.7927 91.7854 20.1813 91.7854 19.36C91.7854 18.548 91.6034 17.9413 91.2394 17.54C90.8847 17.1387 90.4227 16.938 89.8534 16.938C89.564 16.938 89.298 16.9893 89.0554 17.092C88.8127 17.1853 88.598 17.3347 88.4114 17.54C88.234 17.7453 88.094 18.002 87.9914 18.31C87.8887 18.6087 87.8374 18.9587 87.8374 19.36C87.8374 19.7707 87.8887 20.13 87.9914 20.438C88.094 20.7367 88.234 20.9887 88.4114 21.194C88.5887 21.39 88.7987 21.5393 89.0414 21.642C89.2934 21.7353 89.5594 21.782 89.8394 21.782ZM98.831 23.14C98.2803 23.14 97.8043 23.0187 97.403 22.776C97.011 22.524 96.6937 22.188 96.451 21.768V25.478H94.827V15.734H96.311L96.423 17.022C96.6657 16.5833 96.9877 16.238 97.389 15.986C97.7903 15.7247 98.2803 15.594 98.859 15.594C99.2883 15.594 99.6943 15.6733 100.077 15.832C100.469 15.9813 100.81 16.2147 101.099 16.532C101.388 16.84 101.617 17.232 101.785 17.708C101.962 18.1747 102.051 18.7253 102.051 19.36C102.051 20.004 101.962 20.564 101.785 21.04C101.617 21.5067 101.384 21.8987 101.085 22.216C100.796 22.524 100.455 22.7573 100.063 22.916C99.671 23.0653 99.2603 23.14 98.831 23.14ZM98.439 21.782C99.0177 21.782 99.4843 21.586 99.839 21.194C100.203 20.7927 100.385 20.1813 100.385 19.36C100.385 18.548 100.203 17.9413 99.839 17.54C99.4843 17.1387 99.0223 16.938 98.453 16.938C98.1637 16.938 97.8977 16.9893 97.655 17.092C97.4123 17.1853 97.1977 17.3347 97.011 17.54C96.8337 17.7453 96.6937 18.002 96.591 18.31C96.4883 18.6087 96.437 18.9587 96.437 19.36C96.437 19.7707 96.4883 20.13 96.591 20.438C96.6937 20.7367 96.8337 20.9887 97.011 21.194C97.1883 21.39 97.3983 21.5393 97.641 21.642C97.893 21.7353 98.159 21.782 98.439 21.782ZM106.577 23.14C106.063 23.14 105.587 23.056 105.149 22.888C104.71 22.72 104.327 22.4773 104.001 22.16C103.683 21.8333 103.431 21.4367 103.245 20.97C103.067 20.5033 102.979 19.9667 102.979 19.36C102.979 18.7533 103.067 18.2167 103.245 17.75C103.431 17.2833 103.683 16.8913 104.001 16.574C104.327 16.2473 104.71 16.0047 105.149 15.846C105.587 15.678 106.063 15.594 106.577 15.594C107.09 15.594 107.566 15.678 108.005 15.846C108.443 16.0047 108.826 16.2473 109.153 16.574C109.479 16.8913 109.736 17.2833 109.923 17.75C110.109 18.2167 110.203 18.7533 110.203 19.36C110.203 19.9667 110.109 20.5033 109.923 20.97C109.736 21.4367 109.479 21.8333 109.153 22.16C108.826 22.4773 108.443 22.72 108.005 22.888C107.566 23.056 107.09 23.14 106.577 23.14ZM106.577 21.782C107.137 21.782 107.599 21.586 107.963 21.194C108.336 20.802 108.523 20.1907 108.523 19.36C108.523 18.5387 108.336 17.932 107.963 17.54C107.599 17.1387 107.137 16.938 106.577 16.938C106.026 16.938 105.564 17.1387 105.191 17.54C104.827 17.932 104.645 18.5387 104.645 19.36C104.645 20.1907 104.827 20.802 105.191 21.194C105.564 21.586 106.026 21.782 106.577 21.782ZM115.607 17.302C115.075 17.2927 114.595 17.3767 114.165 17.554C113.736 17.7313 113.409 18.0113 113.185 18.394V23H111.561V15.734H113.045L113.157 17.246H113.185C113.419 16.798 113.736 16.4247 114.137 16.126C114.548 15.8273 115.038 15.65 115.607 15.594V17.302ZM120.909 22.776C120.741 22.8787 120.531 22.9627 120.279 23.028C120.027 23.1027 119.737 23.14 119.411 23.14C119.019 23.14 118.687 23.0887 118.417 22.986C118.155 22.874 117.941 22.7247 117.773 22.538C117.605 22.3513 117.483 22.1367 117.409 21.894C117.334 21.642 117.297 21.376 117.297 21.096V17.05H116.429V15.734H117.297V14.208H118.921V15.734H121.007V17.05H118.921V20.914C118.921 21.2127 118.991 21.432 119.131 21.572C119.28 21.712 119.523 21.782 119.859 21.782C120.083 21.782 120.279 21.7493 120.447 21.684C120.615 21.6187 120.769 21.53 120.909 21.418V22.776Z" fill="white"/>
</svg>

<svg xmlns="http://www.w3.org/2000/svg" width="138" height="36" fill="none"><path fill="#2C3C4F" d="M0 8a8 8 0 0 1 8-8h122a8 8 0 0 1 8 8v20a8 8 0 0 1-8 8H8a8 8 0 0 1-8-8V8Z"/><path fill="#fff" d="M22.121 23.14c-.774 0-1.474-.117-2.1-.35a4.533 4.533 0 0 1-1.61-1.008 4.672 4.672 0 0 1-1.022-1.624c-.233-.644-.35-1.367-.35-2.17 0-.812.112-1.535.336-2.17a4.47 4.47 0 0 1 .994-1.61c.439-.448.97-.789 1.596-1.022.625-.233 1.34-.35 2.142-.35.69 0 1.279.07 1.764.21.495.13.887.285 1.176.462v1.512a4.222 4.222 0 0 0-1.316-.532 6.221 6.221 0 0 0-1.568-.196c-1.13 0-1.97.308-2.52.924-.541.607-.812 1.53-.812 2.772 0 2.464 1.139 3.696 3.416 3.696.532 0 1.032-.065 1.498-.196.476-.13.91-.336 1.302-.616v1.498c-.261.196-.64.373-1.134.532-.494.159-1.092.238-1.792.238Zm7.674 0a3.96 3.96 0 0 1-1.428-.252 3.344 3.344 0 0 1-1.148-.728 3.605 3.605 0 0 1-.756-1.19c-.177-.467-.266-1.003-.266-1.61 0-.607.089-1.143.266-1.61.187-.467.439-.859.756-1.176.327-.327.71-.57 1.148-.728a3.96 3.96 0 0 1 1.428-.252c.514 0 .99.084 1.428.252a3.09 3.09 0 0 1 1.148.728c.327.317.584.71.77 1.176.187.467.28 1.003.28 1.61 0 .607-.093 1.143-.28 1.61a3.495 3.495 0 0 1-.77 1.19c-.326.317-.709.56-1.148.728a3.96 3.96 0 0 1-1.428.252Zm0-1.358c.56 0 1.022-.196 1.386-.588.374-.392.56-1.003.56-1.834 0-.821-.186-1.428-.56-1.82-.364-.401-.826-.602-1.386-.602-.55 0-1.012.2-1.386.602-.364.392-.546.999-.546 1.82 0 .83.182 1.442.546 1.834.374.392.836.588 1.386.588Zm8.541-4.844c-.476 0-.868.103-1.176.308-.308.196-.56.453-.756.77V23H34.78v-7.266h1.54l.056 1.19h.028c.196-.383.49-.7.882-.952.401-.252.91-.378 1.526-.378.71 0 1.288.191 1.736.574.457.383.686.966.686 1.75V23h-1.638v-4.914c0-.42-.112-.714-.336-.882-.224-.177-.532-.266-.924-.266Zm8.54 5.838a2.329 2.329 0 0 1-.63.252 3.06 3.06 0 0 1-.868.112c-.392 0-.724-.051-.994-.154a1.809 1.809 0 0 1-.644-.448 1.696 1.696 0 0 1-.364-.644 2.794 2.794 0 0 1-.112-.798V17.05h-.868v-1.316h.868v-1.526h1.624v1.526h2.086v1.316h-2.086v3.864c0 .299.07.518.21.658.149.14.392.21.728.21.224 0 .42-.033.588-.098a1.75 1.75 0 0 0 .462-.266v1.358Zm5.694-1.05a2.435 2.435 0 0 1-.308.504 2.165 2.165 0 0 1-.462.462c-.178.13-.392.238-.644.322a2.792 2.792 0 0 1-.882.126 2.69 2.69 0 0 1-.882-.14 1.975 1.975 0 0 1-.714-.392 2.024 2.024 0 0 1-.476-.658 2.399 2.399 0 0 1-.168-.924c0-.793.294-1.386.882-1.778.588-.401 1.418-.602 2.492-.602h1.106v-.448c0-.476-.122-.803-.364-.98-.243-.187-.644-.28-1.204-.28-.476 0-.924.07-1.344.21-.411.13-.775.285-1.092.462v-1.358c.289-.159.672-.308 1.148-.448.476-.14.994-.21 1.554-.21.933 0 1.652.196 2.156.588.513.383.77.999.77 1.848v4.088c.009.103.014.21.014.322.009.112.018.22.028.322.009.093.018.173.028.238H52.71a6.4 6.4 0 0 1-.084-.546 21.79 21.79 0 0 1-.042-.63l-.014-.098Zm-1.848.154c.345 0 .63-.07.854-.21.233-.15.42-.317.56-.504.14-.196.238-.387.294-.574a1.63 1.63 0 0 0 .084-.392v-.49h-1.008c-.644 0-1.116.103-1.414.308a.946.946 0 0 0-.448.84c0 .317.088.57.266.756.186.177.457.266.812.266Zm8.514 1.26a4.65 4.65 0 0 1-1.582-.252 3.433 3.433 0 0 1-1.19-.742 3.33 3.33 0 0 1-.756-1.19c-.178-.467-.267-.999-.267-1.596 0-.588.09-1.115.267-1.582a3.162 3.162 0 0 1 1.96-1.918 4.544 4.544 0 0 1 1.596-.266 4.6 4.6 0 0 1 1.316.168c.382.112.686.252.91.42v1.344a3.68 3.68 0 0 0-.953-.434 4.036 4.036 0 0 0-1.175-.154c-1.503 0-2.255.807-2.255 2.422 0 1.615.738 2.422 2.212 2.422.476 0 .883-.051 1.218-.154a4.9 4.9 0 0 0 .953-.42v1.344a3.945 3.945 0 0 1-.91.42c-.364.112-.813.168-1.344.168Zm7.628-.364a2.329 2.329 0 0 1-.63.252 3.06 3.06 0 0 1-.868.112c-.392 0-.724-.051-.994-.154a1.809 1.809 0 0 1-.644-.448 1.696 1.696 0 0 1-.364-.644 2.794 2.794 0 0 1-.112-.798V17.05h-.868v-1.316h.868v-1.526h1.624v1.526h2.086v1.316h-2.086v3.864c0 .299.07.518.21.658.15.14.392.21.728.21.224 0 .42-.033.588-.098a1.75 1.75 0 0 0 .462-.266v1.358Zm6.978.364c-.364 0-.695-.033-.994-.098a4.8 4.8 0 0 1-.77-.21 3.708 3.708 0 0 1-.574-.266 3.907 3.907 0 0 1-.364-.252v-1.288c.093.084.22.177.378.28.168.093.36.187.574.28a4.8 4.8 0 0 0 1.694.294c.513 0 .887-.075 1.12-.224a.77.77 0 0 0 .364-.686c0-.196-.047-.35-.14-.462a.952.952 0 0 0-.378-.266 2.233 2.233 0 0 0-.56-.14c-.205-.037-.42-.08-.644-.126a9.773 9.773 0 0 1-.868-.21 3.108 3.108 0 0 1-.77-.378 1.979 1.979 0 0 1-.56-.616c-.14-.252-.21-.574-.21-.966 0-.69.257-1.232.77-1.624.513-.392 1.246-.588 2.198-.588.541 0 1.008.056 1.4.168.401.112.695.229.882.35V17.4a3.438 3.438 0 0 0-.868-.392c-.355-.112-.803-.168-1.344-.168-.532 0-.92.07-1.162.21-.243.14-.364.36-.364.658 0 .168.042.303.126.406.093.093.21.168.35.224.15.056.317.103.504.14a10.936 10.936 0 0 1 1.484.308c.308.075.583.196.826.364.252.159.457.373.616.644.159.27.238.62.238 1.05 0 .439-.084.807-.252 1.106-.168.29-.392.523-.672.7-.28.177-.597.303-.952.378a5.217 5.217 0 0 1-1.078.112Zm8.94-1.33c-.197.373-.49.69-.883.952-.382.252-.886.378-1.512.378-.681 0-1.236-.196-1.666-.588-.429-.392-.644-.99-.644-1.792v-5.026h1.638v4.984c0 .42.117.705.35.854.234.14.518.21.854.21.458 0 .831-.093 1.12-.28.29-.196.537-.457.742-.784v-4.984h1.61V23h-1.484l-.098-1.19h-.028Zm7.45 1.33c-.551 0-1.027-.121-1.429-.364a2.903 2.903 0 0 1-.952-1.008v3.71h-1.624v-9.744h1.484l.112 1.288c.243-.439.565-.784.966-1.036.402-.261.892-.392 1.47-.392.43 0 .836.08 1.218.238.392.15.733.383 1.022.7.29.308.518.7.686 1.176.178.467.266 1.017.266 1.652 0 .644-.088 1.204-.266 1.68a3.341 3.341 0 0 1-.7 1.176c-.289.308-.63.541-1.022.7-.392.15-.802.224-1.232.224Zm-.393-1.358c.579 0 1.046-.196 1.4-.588.364-.401.546-1.013.546-1.834 0-.812-.182-1.419-.546-1.82-.354-.401-.816-.602-1.386-.602-.289 0-.555.051-.798.154a1.677 1.677 0 0 0-.644.448 2.25 2.25 0 0 0-.42.77 3.232 3.232 0 0 0-.154 1.05c0 .41.052.77.154 1.078.103.299.243.55.42.756.178.196.388.345.63.448.252.093.518.14.798.14Zm8.992 1.358c-.55 0-1.027-.121-1.428-.364a2.904 2.904 0 0 1-.952-1.008v3.71h-1.624v-9.744h1.484l.112 1.288c.243-.439.565-.784.966-1.036.401-.261.891-.392 1.47-.392.43 0 .835.08 1.218.238.392.15.733.383 1.022.7.289.308.518.7.686 1.176.177.467.266 1.017.266 1.652 0 .644-.089 1.204-.266 1.68a3.335 3.335 0 0 1-.7 1.176c-.289.308-.63.541-1.022.7-.392.15-.803.224-1.232.224Zm-.392-1.358c.579 0 1.045-.196 1.4-.588.364-.401.546-1.013.546-1.834 0-.812-.182-1.419-.546-1.82-.355-.401-.817-.602-1.386-.602-.29 0-.555.051-.798.154a1.678 1.678 0 0 0-.644.448 2.253 2.253 0 0 0-.42.77 3.232 3.232 0 0 0-.154 1.05c0 .41.051.77.154 1.078.103.299.243.55.42.756.177.196.387.345.63.448.252.093.518.14.798.14Zm8.138 1.358c-.514 0-.99-.084-1.428-.252a3.336 3.336 0 0 1-1.148-.728 3.585 3.585 0 0 1-.756-1.19c-.178-.467-.266-1.003-.266-1.61 0-.607.088-1.143.266-1.61a3.43 3.43 0 0 1 .756-1.176c.326-.327.709-.57 1.148-.728a3.955 3.955 0 0 1 1.428-.252c.513 0 .989.084 1.428.252.438.159.821.401 1.148.728.326.317.583.71.77 1.176.186.467.28 1.003.28 1.61 0 .607-.094 1.143-.28 1.61a3.509 3.509 0 0 1-.77 1.19c-.327.317-.71.56-1.148.728a3.962 3.962 0 0 1-1.428.252Zm0-1.358c.56 0 1.022-.196 1.386-.588.373-.392.56-1.003.56-1.834 0-.821-.187-1.428-.56-1.82-.364-.401-.826-.602-1.386-.602-.551 0-1.013.2-1.386.602-.364.392-.546.999-.546 1.82 0 .83.182 1.442.546 1.834.373.392.835.588 1.386.588Zm9.03-4.48a3.58 3.58 0 0 0-1.442.252 1.973 1.973 0 0 0-.98.84V23h-1.624v-7.266h1.484l.112 1.512h.028c.234-.448.551-.821.952-1.12.411-.299.901-.476 1.47-.532v1.708Zm5.302 5.474a2.329 2.329 0 0 1-.63.252 3.062 3.062 0 0 1-.868.112c-.392 0-.724-.051-.994-.154a1.804 1.804 0 0 1-.644-.448 1.688 1.688 0 0 1-.364-.644 2.783 2.783 0 0 1-.112-.798V17.05h-.868v-1.316h.868v-1.526h1.624v1.526h2.086v1.316h-2.086v3.864c0 .299.07.518.21.658.149.14.392.21.728.21.224 0 .42-.033.588-.098a1.75 1.75 0 0 0 .462-.266v1.358Z"/></svg>
